X: 42045
T: Waltz For Tracey
R: waltz
M: 3/4
K: Gmajor
D2 EF|G4 B2|A3 B c2|d6|G6|e4 g2|f4 e2|d6-|d6|
c4 e2|d4 c2|B4 A2|G6|A4 g2|f4 e2|d6|c2 B2 A2|
G4 B2|A3 B c2|d6|G6|e4 g2|f4 e2|d6-|d6|
c4 e2|d4 c2|B4 d2|g4 G2|Ad- d2 c2|B4 A2|G6-|G6||
AB c2 d2|e4 f2|g6|d6|c3 B ce|d4 c2|B6-|B6|
AB c2 d2|e4 f2|g6|d4 e2|f2 a2 f2|e2 a2 e2|d2 f2 e2|d2 c2 A2|
G4 B2|A3 B c2|d6|G6|e4 g2|f4 e2|d6-|d6|
c4 e2|d4 c2|B4 d2|g4 G2|Ad- d2 c2|B4 A2|G6-|G2 F2 =F2||
E6|G6|c2 d2 e2|d2 c2 A2|G6|=F4 G2|E6-|E6|
A6|c4 A2|B2 d2 B2|G2 A2 B2|A2 c2 A2|F2 G2 A2|G2 B2 A2|G2 F2 =F2|
E6|G6|c2 d2 e2|d2 c2 A2|c6|B2 c2 d2|e6-|e4 E2|
=F6|G4 =F2|E2 G2 c2|e2 c2 A2|c4 A2|B2 c2 d2|c6-|c4 D2||
G4 B2|A3 B c2|d6|G6|e4 g2|f4 e2|d6-|d6|
c4 e2|d4 c2|B4 A2|G6|A4 g2|f4 e2|d6|c2 B2 A2|
G4 B2|A3 B c2|d6|G6|e4 g2|f4 e2|d6-|d6|
c4 e2|d4 c2|B4 d2|g4 G2|Ad- d2 c2|B4 A2|G6-|G6||

